!!!OTL: Der Rebner
!!!ARE: Europa, Mitteleuropa, Deutschland
!!!SCT: A0329
!!!YEM: Copyright 1995, estate of Helmut Schaffrath.
**kern
*ICvox
*Ivox
*M3/2
*k[b-]
*F:
{2f
2f
2f
=1
1a
2a
=2
1cc
2cc
=3
2a
2a}
{2dd
=4
1cc
2cc
=5
2a
2a
2dd
=6
1cc
2cc
=7
2a
2a}
{2a
=8
2a
2a
2a
=9
1a
2a
=10
1b-
2a
=11
2g
2g
2g
=12
1f
2e
=13
1f}
{2a
=14
2a
2a
2a
=15
1a
2a
=16
1b-
2a
=17
2g
2g
2g
=18
1f
2e
=19
1.f}
==
!!!AGN: Romanze, Ballade, Lied, Trinklied
!! Forster II (1540) No. 54.
!!!ONB: ESAC (Essen Associative Code) Database: ALTDEU
!!!AMT: simple triple
!!!AIN: vox
!!!EED: Helmut Schaffrath
!!!EEV: 1.0
*-
